X:1013
T:Roses In Bloom #2
C:Joe Buchanan's Scottish Tome - Page 605.0
I:605 0
Z:Carl Allison
R:Waltz
L:1/4
M:3/4
K:A
E | E F G | A G>F | C3- | C2 E | E F G | A G z/ F/ | D3- | D2 D |
E G A | B G>F | E3 | B,3 | E G F | E B,>^B, | C3- | C2 E |
E F G | A G>F | C3- | C2 E | E F G | A ^A>B | F3- | F3 |
d e d | A B ^B | c3 | E3 | E B G | E F z/ G/ | A3- | A2 :|
%%vskip 50
E | c2 ^B | c2 ^B | c3 | E3 | c B A | G A z/ F/ | G3 | G3 |
d2 c | d2 c | d3 | D3 | D E G | B2 ^B | c3 | c3 |
c2 ^B | c2 ^B | c3 | E3 | c e c | A G =G | F3 | F3 |
d f e | d c>B | c3 | E3 | E B G | E F>E | A3 | A3 :|
